actions/16/symbol-bigger.svg

<svg xmlns="http://www.w3.org/2000/svg" width="16" height="16">
    <defs>
        <style id="current-color-scheme" type="text/css">
            .ColorScheme-Highlight{color:#4285f4}.ColorScheme-NeutralText{color:#ff9800}.ColorScheme-PositiveText{color:#4caf50}.ColorScheme-NegativeText{color:#f44336}
        </style>
    </defs>
    <path style="fill:currentColor;color:#dfdfdf" d="M8 4a4 4 0 0 0-4 4 4 4 0 0 0 4 4 4 4 0 0 0 4-4 4 4 0 0 0-4-4Zm0 1a3 3 0 0 1 3 3 3 3 0 0 1-3 3 3 3 0 0 1-3-3 3 3 0 0 1 3-3ZM3 6v4L0 8Zm5 10 2-3H6ZM8 0l2 3H6Zm5 6v4l3-2Z"/>
</svg>

<svg xmlns="http://www.w3.org/2000/svg" width="16" height="16">
 <defs>
  <style id="current-color-scheme" type="text/css">
   .ColorScheme-Text { color:#dfdfdf; } .ColorScheme-Highlight { color:#4285f4; } .ColorScheme-NeutralText { color:#ff9800; } .ColorScheme-PositiveText { color:#4caf50; } .ColorScheme-NegativeText { color:#f44336; }
  </style>
 </defs>
 <path style="fill:currentColor" class="ColorScheme-Text" d="M 8,4 A 4,4 0 0 0 4,8 4,4 0 0 0 8,12 4,4 0 0 0 12,8 4,4 0 0 0 8,4 Z M 8,5 A 3,3 0 0 1 11,8 3,3 0 0 1 8,11 3,3 0 0 1 5,8 3,3 0 0 1 8,5 Z M 3,6 V 10 L 0,8 Z M 8,16 10,13 H 6 Z M 8,0 10,3 H 6 Z M 13,6 V 10 L 16,8 Z"/>
</svg>
